X:1
T:Title
%%score { ( 1 3 ) | ( 2 4 ) }
L:1/8
M:4/4
K:Ab
V:1 treble nm="Grand Piano"
V:3 treble 
V:2 bass 
V:4 bass 
V:1
 z4 z2[Q:1/4=96] [Ec][DB] | [CA]2 [Ec]2 [CE]3 [CE] | [DF]>[EG] [FA]>[FB] [Ec]2 [Ec]>[Fd] | %3
 cBBB B2 B>c | [DB][CA][CA][CA] [CA]2 [Ec][DB] | [CA]2 [Ec]2 [CE]3 [CE] | %6
 [DF]>[EG] [FA]>[FB] [Ec]2 [Ec]2 | B>B BB [Ge]>[Ge] [EG][EG] |[M:7/8] [=DB]>[DA][DG] [DF] E3 | %9
[M:3/8] e d2 |[M:4/4] cccc c3 A | [FB]2 [FA]>[DF] [CE]2 [CA]2 | BBBc d2 c2 |[M:9/8] B6 e d2 | %14
[M:4/4] cccc c2 [EA][EA] |[M:9/8] [FB]2 [Fc]- [Fc] [Fd]2- [Fd] [Fd]2 |[M:4/4] c2 E>c B2 E>B | %17
[M:3/4] [CA]6 |] %18
V:2
 z4 z2 [A,,A,][A,,A,] | [A,,A,]2 [A,,A,]2 [A,,A,]3 [A,,A,] | %2
 [D,A,]>[D,A,] [D,A,]>[D,A,] [A,,A,]2 [A,,A,]>[A,,A,] | %3
 [E,A,E][E,G,E][E,G,E][E,G,E] [E,G,E]2 [E,G,E]>[E,G,E] | %4
 [A,,A,][A,,E,][A,,E,][A,,E,] [A,,E,]2 [A,,A,][A,,A,] | [A,,A,]2 [A,,A,]2 [A,,A,]3 [A,,A,] | %6
 [D,A,]>[D,A,] [D,A,]>[D,A,] [A,,A,]2 [A,,A,]2 | %7
 [E,G,E]>[E,G,E] [E,G,E][E,G,E] [E,B,]>[E,B,] [E,B,][E,B,] | %8
[M:7/8] [B,,B,]>[B,,B,][B,,B,] [B,,A,] [E,G,]3 |[M:3/8] B, z z | %10
[M:4/4][K:treble] [A,EA][A,EA][A,EA][A,EA] [A,EA]3[K:bass] [A,CE] | %11
 [D,D]2 [D,D]>[D,A,] [A,,A,]2 [A,,A,]2 | [E,G,E][E,G,E][E,G,E][E,A,E] [E,B,E]2 [E,A,E]2 | %13
[M:9/8] z3 z3 .B,3 |[M:4/4][K:treble] [A,EA][A,EA][A,EA][A,EA] [A,EA]2[K:bass] [C,A,][C,A,] | %15
[M:9/8] [D,A,]2 [C,=A,]- [C,A,] [B,,B,]2- [B,,B,] [B,,F,]2 | %16
[M:4/4] [E,A,E]2 [E,A,C]>[E,A,E] [E,G,D]2 [E,G,D]>[E,D] |[M:3/4] [A,,E,]6 |] %18
V:3
 x8 | x8 | x8 | x8 | x8 | x8 | x8 | x8 |[M:7/8] x7 |[M:3/8] G3 |[M:4/4] x8 | x8 | x8 | %13
[M:9/8] z3 z3 G3 |[M:4/4] x8 |[M:9/8] x9 |[M:4/4] x8 |[M:3/4] x6 |] %18
V:4
 x8 | x8 | x8 | x8 | x8 | x8 | x8 | x8 |[M:7/8] x7 |[M:3/8] E,- [E,E]2 | %10
[M:4/4][K:treble] x7[K:bass] x | x8 | x8 |[M:9/8] [E,G,E]6 E,- [E,E]2 | %14
[M:4/4][K:treble] x6[K:bass] x2 |[M:9/8] x9 |[M:4/4] x8 |[M:3/4] x6 |] %18

